X:1
T:Charming Mollie's -- Reel
R:reel
B:Ryan's Mammoth Collection
Z:Contributed by Ray Davies,  ray:davies99.freeserve.co.uk
M:C|
L:1/8
K:G
uG"^Segno"|G2Bd gdBG|D2GB AEEF|G2Bd gdBd|ecBc A2GG|
G2Bd gdBG|D2GB AEEF|G2Bd gdBd|ecAc BGGH:|
g|fgag fddg|fgag bgeg|fgag fddg|fdef g2(dg)|
g2bg g2bg|fgaf fddg|fded fded|fdef gedB"^Segno"||
